svgs/thin/oven.svg

<svg xmlns="http://www.w3.org/2000/svg" viewBox="0 0 448 512"><!-- Font Awesome Pro 6.0.0-alpha2 by @fontawesome - https://fontawesome.com License - https://fontawesome.com/license (Commercial License) --><path d="M80 80C71.166 80 64 87.166 64 96S71.166 112 80 112S96 104.834 96 96S88.834 80 80 80ZM96 448H352C369.674 448 384 433.674 384 416V256C384 238.326 369.674 224 352 224H96C78.328 224 64 238.326 64 256V416C64 433.674 78.328 448 96 448ZM80 256C80 247.178 87.178 240 96 240H352C360.822 240 368 247.178 368 256V416C368 424.822 360.822 432 352 432H96C87.178 432 80 424.822 80 416V256ZM368 80C359.166 80 352 87.166 352 96S359.166 112 368 112S384 104.834 384 96S376.834 80 368 80ZM176 80C167.166 80 160 87.166 160 96S167.166 112 176 112S192 104.834 192 96S184.834 80 176 80ZM384 0H64C28.625 0 0 28.625 0 64V448C0 483.199 28.801 512 64 512H384C419.199 512 448 483.199 448 448V64C448 28.625 419.375 0 384 0ZM432 448C432 474.467 410.467 496 384 496H64C37.533 496 16 474.467 16 448V176H432V448ZM432 160H16V64C16 37.533 37.533 16 64 16H384C410.467 16 432 37.533 432 64V160ZM272 80C263.166 80 256 87.166 256 96S263.166 112 272 112S288 104.834 288 96S280.834 80 272 80ZM120 304H328C332.406 304 336 300.422 336 296S332.406 288 328 288H120C115.594 288 112 291.578 112 296S115.594 304 120 304Z"/></svg>

<svg xmlns="http://www.w3.org/2000/svg" viewBox="0 0 448 512"><!--! Font Awesome Pro 6.3.0 by @fontawesome - https://fontawesome.com License - https://fontawesome.com/license (Commercial License) Copyright 2023 Fonticons, Inc. --><path d="M80 80C71.17 80 64 87.17 64 96s7.166 16 16 16S96 104.8 96 96S88.83 80 80 80zM96 448h256c17.67 0 32-14.33 32-32V256c0-17.67-14.33-32-32-32H96C78.33 224 64 238.3 64 256v160C64 433.7 78.33 448 96 448zM80 256c0-8.822 7.178-16 16-16h256c8.822 0 16 7.178 16 16v160c0 8.822-7.178 16-16 16H96c-8.822 0-16-7.178-16-16V256zM368 80C359.2 80 352 87.17 352 96s7.166 16 16 16S384 104.8 384 96S376.8 80 368 80zM176 80C167.2 80 160 87.17 160 96s7.166 16 16 16S192 104.8 192 96S184.8 80 176 80zM384 0H64C28.63 0 0 28.62 0 64v384c0 35.2 28.8 64 64 64h320c35.2 0 64-28.8 64-64V64C448 28.62 419.4 0 384 0zM432 448c0 26.47-21.53 48-48 48H64c-26.47 0-48-21.53-48-48V176h416V448zM432 160h-416V64c0-26.47 21.53-48 48-48h320c26.47 0 48 21.53 48 48V160zM272 80C263.2 80 256 87.17 256 96s7.166 16 16 16S288 104.8 288 96S280.8 80 272 80zM120 304h208c4.406 0 8-3.578 8-8S332.4 288 328 288h-208C115.6 288 112 291.6 112 296S115.6 304 120 304z"/></svg>
